X:268
T:B268-  Ladies of London
Q:1/4=120
M:6/4
L:1/4
K:Bb
Bcdcde|dcBf2d|efgfde|c3c2d|\
Bcdedc|dcBb2a|gaf=efg|g3f3||\
fgab2a|gfed2b|abg^fga|a3g3|\
fgabdg|fgdc2d|BBffeg|c3.B3|]

